public/orpheus-flag.svg

<svg width="280" height="158" viewBox="0 0 280 158" fill="none" xmlns="http://www.w3.org/2000/svg">
<mask id="mask0_278_26" style="mask-type:luminance" maskUnits="userSpaceOnUse" x="0" y="0" width="280" height="158">
<path d="M0 0H280V157.5H0V0Z" fill="white"/>
</mask>
<g mask="url(#mask0_278_26)">
<path fill-rule="evenodd" clip-rule="evenodd" d="M5.45606 0C5.45606 0 5.15216 2.70449 4.75817 7.14273C3.35452 22.9543 0.807323 60.7705 6.78357 76.6992C14.4373 97.099 26.6635 97.999 26.6635 97.999C26.6635 97.999 87.2971 56.9994 86.9989 58.2994C86.7007 59.5994 86.0049 53.2994 79.0469 41.5996C72.0889 29.8997 72.0306 5.69994 72.0306 0" fill="white"/>
<path d="M5.3201 0C5.3201 0 -0.82092 56.2994 6.87897 76.6992C14.5788 97.099 30.6418 99.5598 30.6418 99.5598C30.6418 99.5598 89.6828 66.4407 88.6424 60.6345C87.6019 54.8282 84.6381 49.3364 77.6382 37.6366C70.6383 25.9367 72.5693 5.69994 72.5693 0" stroke="#17171D" stroke-width="3" stroke-linecap="round" stroke-linejoin="round"/>
<path fill-rule="evenodd" clip-rule="evenodd" d="M88.0918 59.7661C85.0836 56.2919 78.9919 48.5662 49.6923 65.766C20.3927 82.9658 23.7927 95.8657 27.1926 98.1656C30.5926 100.466 38.2925 103.766 68.292 91.5656C98.2916 79.3658 91.1 63.2403 88.0918 59.7661Z" fill="white" stroke="#17171D" stroke-width="3" stroke-linecap="round" stroke-linejoin="round"/>
<mask id="mask1_278_26" style="mask-type:luminance" maskUnits="userSpaceOnUse" x="87" y="32" width="193" height="105">
<path fill-rule="evenodd" clip-rule="evenodd" d="M119.139 32.1697C120.843 31.8719 145.187 28.6738 180.393 70.4297C213.648 109.872 267.136 105.335 276.965 104.039C277.291 103.995 277.536 104.594 277.279 104.798L262.781 116.355C262.553 116.537 262.593 116.895 262.858 117.018C264.854 117.951 271.823 121.187 279.713 124.616C280.04 124.757 280.058 125.211 279.721 125.328C272.214 127.926 219.682 145.256 190.49 132.109C159.001 117.925 145.261 102.889 127.63 88.257C110.268 73.8492 100.039 66.5505 87 63.1005C87 63.1005 111.99 39.4179 117.843 33.4752C118.661 32.6448 119.131 32.1712 119.139 32.1697Z" fill="white"/>
</mask>
<g mask="url(#mask1_278_26)">
<path fill-rule="evenodd" clip-rule="evenodd" d="M119.139 32.1697C120.843 31.8719 145.187 28.6738 180.393 70.4297C213.648 109.872 267.136 105.335 276.965 104.039C277.291 103.995 277.536 104.594 277.279 104.798L262.781 116.355C262.553 116.537 262.593 116.895 262.858 117.018C264.854 117.951 271.823 121.187 279.713 124.616C280.04 124.757 280.058 125.211 279.721 125.328C272.214 127.926 219.682 145.256 190.49 132.109C159.001 117.925 145.261 102.889 127.63 88.257C110.268 73.8492 100.039 66.5505 87 63.1005C87 63.1005 111.99 39.4179 117.843 33.4752C118.661 32.6448 119.131 32.1712 119.139 32.1697Z" fill="#E39A74" stroke="#17171D" stroke-width="6"/>
</g>
<path fill-rule="evenodd" clip-rule="evenodd" d="M127.091 44.6187C125.396 47.1052 122.388 51.3334 117.758 56.4626C109.446 64.2245 116.978 65.7403 120.723 62.6467C122.871 60.9745 125.136 59.13 125.136 59.13L130.213 64.2471C130.213 64.2471 128.46 66.8194 126.914 68.9037C122.285 74.0333 128.229 75.8449 131.78 72.1142C133.498 70.1474 141.006 62.0858 144.161 57.4554C146.951 54.8396 143.688 49.8339 139.269 54.101C137.297 55.5163 133.607 58.899 133.607 58.899C133.607 58.899 129.383 54.7453 129.414 54.5152C129.448 53.91 130.669 52.8593 131.256 51.6268C134.826 42.8779 129.37 41.2747 127.091 44.6187Z" fill="white"/>
<path fill-rule="evenodd" clip-rule="evenodd" d="M150.596 63.9066C153.559 61.5003 155.587 61.7866 156.857 62.5291C157.412 62.836 157.667 64.3584 157.759 65.7521C156.383 74.0372 146.74 86.0709 145.707 86.706C142.017 89.1951 138.562 86.8535 141.665 83.7667C143.351 81.8011 144.99 80.0631 144.99 80.0631L140.381 77.3355C133.232 83.026 131.201 78.38 134.618 76.0699C138.419 73.2725 146.62 67.093 150.596 63.9066ZM144.704 72.7055L149.12 75.6768C149.12 75.6768 154.243 67.8515 152.349 68.0674L144.704 72.7055Z" fill="white"/>
<path fill-rule="evenodd" clip-rule="evenodd" d="M172.852 81.0428C174.288 79.5436 174.789 74.9165 169.887 73.5179C163.204 70.5657 155.642 81.1986 155.642 81.1986C155.642 81.1986 151.989 86.3527 152.001 90.9919C151.916 95.4218 155.762 97.1683 156.468 97.5995C161.432 98.2541 161.247 94.6666 160.541 94.2362C159.612 93.7587 158.25 93.3335 157.591 92.0134C156.464 89.7918 158.409 86.3169 159.67 84.5447C162.046 81.6798 166.963 76.0793 169.421 79.0984C170.229 82.3898 172.069 81.8738 172.852 81.0428Z" fill="white"/>
<path fill-rule="evenodd" clip-rule="evenodd" d="M177.217 82.765C174.434 85.814 174.205 90.2426 168.211 95.7326C166.762 97.0805 163.676 99.3596 163.278 99.7009C160.272 102.044 162.751 105.339 168.798 101.603C170.231 100.771 172.616 98.063 172.616 98.063L174.274 98.5965C174.274 98.5965 172.919 105.288 172.066 108.031C171.274 110.693 175.077 114.123 177.359 109.227C177.961 107.467 178.401 104.92 178.601 101.523C178.601 101.523 178.834 99.0739 178.259 98.4832C178.259 98.4832 185.44 95.7844 186.775 94.0829C188.173 92.301 187.898 90.5002 182.545 92.0248C177.194 93.5502 176.272 94.3945 176.272 94.3945C176.272 94.3945 179.052 90.6853 180.368 87.5198C182.193 84.3661 179.553 80.2829 177.217 82.765Z" fill="white"/>
<path fill-rule="evenodd" clip-rule="evenodd" d="M199.427 100.295C197.02 101.195 194.578 103.82 192.584 108.558C189.666 115.657 190.754 120.981 196.061 122.409C201.37 123.837 201.813 119.742 201.411 119.42C201.089 119.16 201.185 118.699 198.814 118.548C196.44 118.397 195.314 116.818 195.432 113.137C195.534 110.657 196.914 106.37 199.467 104.778C200.227 104.308 200.742 104.318 201.033 104.282C202.196 104.136 202.888 105.097 202.986 105.308C204.707 108.308 206.13 106.485 206.038 104.252C205.382 100.894 203.222 99.2949 199.427 100.295Z" fill="white"/>
<path fill-rule="evenodd" clip-rule="evenodd" d="M210.364 105.988C211.535 103.322 215.198 102.51 213.487 108.881C212.95 113.254 209.306 120.534 209.568 121.478C209.83 122.422 214.513 123.379 215.839 123.509C217.163 123.641 219.054 125.104 218.057 126.041C217.138 127.043 215.99 126.66 215.7 126.695C215.41 126.73 204.52 125.25 205.016 123.193C205.514 121.137 205.884 120.254 206.979 116.863C208.075 113.471 209.192 108.654 210.364 105.988Z" fill="white"/>
<path fill-rule="evenodd" clip-rule="evenodd" d="M222.865 108.585C223.52 106.571 226.006 106.28 226.231 108.86C226.386 110.852 224.279 118.249 224.395 121.81C224.646 123.343 226.162 124.283 227.41 123.541C229.046 122.307 230.242 117.922 231.166 114.387C231.482 112.638 231.571 111.231 231.99 110.363C233.666 107.56 235.722 109.33 235.464 112.86C234.866 116.654 233.369 122.544 232.013 124.267C230.721 125.908 229.188 128.024 226.536 127.516C225.852 127.373 220.336 125.786 221.067 119.296C221.991 112.559 222.209 110.598 222.865 108.585Z" fill="white"/>
<path fill-rule="evenodd" clip-rule="evenodd" d="M241.63 110.195C245.684 109.705 248.371 110.121 249.935 111.636C250.725 112.799 250.601 114.964 249.591 116.42C248.627 117.649 247.55 118.519 247.55 118.519C249.356 119.561 249.89 122.071 249.137 124.702C248.385 127.333 245.012 128.608 240.04 128.099C238.398 127.853 236.852 127.151 237.011 126.612C237.412 125.6 239.059 112.137 239.059 112.137C239.267 111.37 239.233 110.412 241.63 110.195ZM242.005 112.892L241.917 117.348C241.917 117.348 246.487 117.536 246.966 115.256C247.443 112.974 244.451 113.115 242.005 112.892ZM241.167 120.477C241.167 120.477 240.195 125.56 240.243 125.332C240.355 125.022 246.529 126.446 246.65 122.947C246.771 119.45 241.167 120.477 241.167 120.477Z" fill="white"/>
<path d="M90 60L48 100.362L51.3788 101.867L92.5 62L90 60Z" fill="#17171D"/>
<path fill-rule="evenodd" clip-rule="evenodd" d="M75 72.658C75.7 74.3579 82.4999 81.2579 78.7999 82.2579C75.1 83.2578 76.4 91.7577 83.6999 89.8578C90.9998 87.9578 93.2997 78.3579 86.2998 74.3579C79.2999 70.358 75 72.658 75 72.658Z" fill="white" stroke="#252429" stroke-width="3" stroke-linecap="round" stroke-linejoin="round"/>
<path fill-rule="evenodd" clip-rule="evenodd" d="M62 81.658C62.7 83.3579 69.4999 90.2579 65.7999 91.2579C62.1 92.2578 63.4 100.758 70.6999 98.8578C77.9998 96.9578 80.2997 87.3579 73.2998 83.3579C66.2999 79.358 62 81.658 62 81.658Z" fill="white" stroke="#252429" stroke-width="3" stroke-linecap="round" stroke-linejoin="round"/>
<path fill-rule="evenodd" clip-rule="evenodd" d="M49 90.658C49.7 92.3579 56.4999 99.2579 52.7999 100.258C49.1001 101.258 50.4 109.758 57.7 107.858C64.9998 105.958 67.2998 96.3579 60.2998 92.3579C53.2999 88.358 49 90.658 49 90.658Z" fill="white" stroke="#252429" stroke-width="3" stroke-linecap="round" stroke-linejoin="round"/>
</g>
</svg>

<svg xmlns="http://www.w3.org/2000/svg" width="280" height="158" fill="none"><mask id="a" width="280" height="158" x="0" y="0" maskUnits="userSpaceOnUse" style="mask-type:luminance"><path fill="#fff" d="M0 0h280v157.5H0z"/></mask><g mask="url(#a)"><path fill="#fff" fill-rule="evenodd" d="M5.456 0s-.304 2.704-.698 7.143C3.355 22.954.808 60.77 6.784 76.699 14.437 97.1 26.664 98 26.664 98s60.633-41 60.335-39.7-.994-5-7.952-16.7S72.03 5.7 72.03 0" clip-rule="evenodd"/><path stroke="#17171D" stroke-linecap="round" stroke-linejoin="round" stroke-width="3" d="M5.32 0S-.82 56.3 6.88 76.7c7.7 20.399 23.763 22.86 23.763 22.86s59.04-33.12 58-38.925c-1.04-5.807-4.004-11.299-11.004-22.998S72.57 5.7 72.57 0"/><path fill="#fff" fill-rule="evenodd" stroke="#17171D" stroke-linecap="round" stroke-linejoin="round" stroke-width="3" d="M88.092 59.766c-3.008-3.474-9.1-11.2-38.4 6s-25.9 30.1-22.5 32.4 11.1 5.6 41.1-6.6 22.808-28.326 19.8-31.8" clip-rule="evenodd"/><mask id="b" width="193" height="105" x="87" y="32" maskUnits="userSpaceOnUse" style="mask-type:luminance"><path fill="#fff" fill-rule="evenodd" d="M119.139 32.17c1.704-.298 26.048-3.496 61.254 38.26 33.255 39.442 86.743 34.905 96.572 33.609.326-.044.571.555.314.759l-14.498 11.557a.392.392 0 0 0 .077.663c1.996.933 8.965 4.169 16.855 7.598.327.141.345.595.008.712-7.507 2.598-60.039 19.928-89.231 6.781-31.489-14.184-45.229-29.22-62.86-43.852C110.268 73.849 100.039 66.55 87 63.1c0 0 24.99-23.682 30.843-29.625a96 96 0 0 1 1.296-1.305" clip-rule="evenodd"/></mask><g mask="url(#b)"><path fill="#E39A74" fill-rule="evenodd" stroke="#17171D" stroke-width="6" d="M119.139 32.17c1.704-.298 26.048-3.496 61.254 38.26 33.255 39.442 86.743 34.905 96.572 33.609.326-.044.571.555.314.759l-14.498 11.557a.392.392 0 0 0 .077.663c1.996.933 8.965 4.169 16.855 7.598.327.141.345.595.008.712-7.507 2.598-60.039 19.928-89.231 6.781-31.489-14.184-45.229-29.22-62.86-43.852C110.268 73.849 100.039 66.55 87 63.1c0 0 24.99-23.682 30.843-29.625a96 96 0 0 1 1.296-1.305Z" clip-rule="evenodd"/></g><path fill="#fff" fill-rule="evenodd" d="M127.091 44.619c-1.695 2.486-4.703 6.714-9.333 11.844-8.312 7.762-.78 9.277 2.965 6.184a298 298 0 0 0 4.413-3.517l5.077 5.117s-1.753 2.572-3.299 4.657c-4.629 5.13 1.315 6.94 4.866 3.21 1.718-1.967 9.226-10.028 12.381-14.659 2.79-2.615-.473-7.621-4.892-3.354-1.972 1.415-5.662 4.798-5.662 4.798s-4.224-4.154-4.193-4.384c.034-.605 1.255-1.656 1.842-2.888 3.57-8.75-1.886-10.352-4.165-7.008M150.596 63.907c2.963-2.407 4.991-2.12 6.261-1.378.555.307.81 1.83.902 3.223-1.376 8.285-11.019 20.319-12.052 20.954-3.69 2.49-7.145.147-4.042-2.94 1.686-1.965 3.325-3.703 3.325-3.703l-4.609-2.728c-7.149 5.691-9.18 1.045-5.763-1.265 3.801-2.797 12.002-8.977 15.978-12.163m-5.892 8.799 4.416 2.97s5.123-7.824 3.229-7.609zM172.852 81.043c1.436-1.5 1.937-6.127-2.965-7.525-6.683-2.952-14.245 7.68-14.245 7.68s-3.653 5.155-3.641 9.794c-.085 4.43 3.761 6.176 4.467 6.608 4.964.654 4.779-2.933 4.073-3.364-.929-.477-2.291-.903-2.95-2.223-1.127-2.221.818-5.696 2.079-7.468 2.376-2.865 7.293-8.466 9.751-5.447.808 3.292 2.648 2.776 3.431 1.945M177.217 82.765c-2.783 3.049-3.012 7.478-9.006 12.968-1.449 1.347-4.535 3.627-4.933 3.968-3.006 2.343-.527 5.638 5.52 1.902 1.433-.832 3.818-3.54 3.818-3.54l1.658.534s-1.355 6.691-2.208 9.434c-.792 2.662 3.011 6.092 5.293 1.196.602-1.76 1.042-4.307 1.242-7.704 0 0 .233-2.45-.342-3.04 0 0 7.181-2.699 8.516-4.4 1.398-1.782 1.123-3.583-4.23-2.058-5.351 1.525-6.273 2.37-6.273 2.37s2.78-3.71 4.096-6.875c1.825-3.154-.815-7.237-3.151-4.755M199.427 100.295c-2.407.9-4.849 3.525-6.843 8.263-2.918 7.099-1.83 12.423 3.477 13.851 5.309 1.428 5.752-2.667 5.35-2.989-.322-.26-.226-.721-2.597-.872-2.374-.151-3.5-1.73-3.382-5.411.102-2.48 1.482-6.767 4.035-8.359.76-.47 1.275-.46 1.566-.496 1.163-.146 1.855.815 1.953 1.026 1.721 3 3.144 1.177 3.052-1.056-.656-3.358-2.816-4.957-6.611-3.957M210.364 105.988c1.171-2.666 4.834-3.478 3.123 2.893-.537 4.373-4.181 11.653-3.919 12.597s4.945 1.901 6.271 2.031c1.324.132 3.215 1.595 2.218 2.532-.919 1.002-2.067.619-2.357.654s-11.18-1.445-10.684-3.502c.498-2.056.868-2.939 1.963-6.33s2.213-8.209 3.385-10.875M222.865 108.585c.655-2.014 3.141-2.305 3.366.275.155 1.992-1.952 9.389-1.836 12.95.251 1.533 1.767 2.473 3.015 1.731 1.636-1.234 2.832-5.619 3.756-9.154.316-1.749.405-3.156.824-4.024 1.676-2.803 3.732-1.033 3.474 2.497-.598 3.794-2.095 9.684-3.451 11.407-1.292 1.641-2.825 3.757-5.477 3.249-.684-.143-6.2-1.73-5.469-8.22.924-6.737 1.142-8.698 1.798-10.711M241.63 110.195c4.054-.49 6.741-.074 8.305 1.441.79 1.163.666 3.328-.344 4.784-.964 1.229-2.041 2.099-2.041 2.099 1.806 1.042 2.34 3.552 1.587 6.183s-4.125 3.906-9.097 3.397c-1.642-.246-3.188-.948-3.029-1.487.401-1.012 2.048-14.475 2.048-14.475.208-.767.174-1.725 2.571-1.942m.375 2.697-.088 4.456s4.57.188 5.049-2.092c.477-2.282-2.515-2.141-4.961-2.364m-.838 7.585s-.972 5.083-.924 4.855c.112-.31 6.286 1.114 6.407-2.385.121-3.497-5.483-2.47-5.483-2.47" clip-rule="evenodd"/><path fill="#17171D" d="m90 60-42 40.362 3.379 1.505L92.5 62z"/><path fill="#fff" fill-rule="evenodd" stroke="#252429" stroke-linecap="round" stroke-linejoin="round" stroke-width="3" d="M75 72.658c.7 1.7 7.5 8.6 3.8 9.6s-2.4 9.5 4.9 7.6 9.6-11.5 2.6-15.5-11.3-1.7-11.3-1.7" clip-rule="evenodd"/><path fill="#fff" fill-rule="evenodd" stroke="#252429" stroke-linecap="round" stroke-linejoin="round" stroke-width="3" d="M62 81.658c.7 1.7 7.5 8.6 3.8 9.6s-2.4 9.5 4.9 7.6 9.6-11.5 2.6-15.5-11.3-1.7-11.3-1.7" clip-rule="evenodd"/><path fill="#fff" fill-rule="evenodd" stroke="#252429" stroke-linecap="round" stroke-linejoin="round" stroke-width="3" d="M49 90.658c.7 1.7 7.5 8.6 3.8 9.6s-2.4 9.5 4.9 7.6 9.6-11.5 2.6-15.5-11.3-1.7-11.3-1.7" clip-rule="evenodd"/></g></svg>
